svg/device/camcorder_2_fill.svg

<?xml version="1.0" encoding="UTF-8"?>
<svg width="24px" height="24px" viewBox="0 0 24 24" version="1.1" xmlns="http://www.w3.org/2000/svg" xmlns:xlink="http://www.w3.org/1999/xlink">
    <title>camcorder_2_fill</title>
    <g id="Icon" stroke="none" stroke-width="1" fill="none" fill-rule="evenodd">
        <g id="Device" transform="translate(-384.000000, -336.000000)" fill-rule="nonzero">
            <g id="camcorder_2_fill" transform="translate(384.000000, 336.000000)">
                <path d="M24,0 L24,24 L0,24 L0,0 L24,0 Z M12.5935,23.2578 L12.5819,23.2595 L12.5109,23.295 L12.4919,23.2987 L12.4767,23.295 L12.4057,23.2595 C12.3958,23.2564 12.387,23.259 12.3821,23.2649 L12.378,23.2758 L12.3609,23.7031 L12.3659,23.7235 L12.3769,23.7357 L12.4805,23.8097 L12.4953,23.8136 L12.5071,23.8097 L12.6107,23.7357 L12.6233,23.7197 L12.6267,23.7031 L12.6096,23.2758 C12.6076,23.2657 12.601,23.2593 12.5935,23.2578 Z M12.8584,23.1453 L12.8445,23.1473 L12.6598,23.2397 L12.6499,23.2499 L12.6472,23.2611 L12.6651,23.6906 L12.6699,23.7034 L12.6784,23.7105 L12.8793,23.8032 C12.8914,23.8069 12.9022,23.803 12.9078,23.7952 L12.9118,23.7812 L12.8777,23.1665 C12.8753,23.1546 12.8674,23.147 12.8584,23.1453 Z M12.143,23.1473 C12.1332,23.1424 12.1222,23.1453 12.1156,23.1526 L12.1099,23.1665 L12.0758,23.7812 C12.0751,23.7927 12.0828,23.8019 12.0926,23.8046 L12.1083,23.8032 L12.3092,23.7105 L12.3186,23.7024 L12.3225,23.6906 L12.3404,23.2611 L12.3372,23.2485 L12.3278,23.2397 L12.143,23.1473 Z" id="MingCute"></path>
                <path d="M17.054,4.39569 C18.5972429,3.982185 20.1819569,4.8505298 20.6777504,6.3480615 L20.7283,6.51701 L21.7635,10.3807 C22.0364045,11.3991045 21.4719558,12.4446616 20.492065,12.786267 L20.3493,12.8302 L17.9999,13.4597 L17.9999,15 C17.9999,15.51285 18.385927,15.9355092 18.8832761,15.9932725 L18.9999,16 L19.9999,16 C19.9999,15.4477 20.4476,15 20.9999,15 C21.51275,15 21.9354092,15.386027 21.9931725,15.8833761 L21.9999,16 L21.9999,18 C21.9999,18.5523 21.5522,19 20.9999,19 C20.48705,19 20.0643908,18.613973 20.0066275,18.1166239 L19.9999,18 L18.9999,18 C17.4022714,18 16.0962429,16.7510296 16.0049929,15.1762674 L15.9999,15 L15.9999,13.9956 L9.48681,15.7408 C8.67818812,15.9574562 7.82675473,15.6470324 7.34513157,14.976301 L7.25386,14.8374 L4.23901,9.809 C3.74985318,8.99313091 4.13590824,7.94687576 5.009236,7.6291151 L5.13727,7.58878 L17.054,4.39569 Z M4.20229,10.6669 L5.82735,13.4157 C6.10841,13.8912 5.95085,14.5044 5.47542,14.7855 C5,15.0665 4.38676,14.909 4.1057,14.4335 L2.48064,11.6847 C2.19958,11.2092 2.35715,10.596 2.83257,10.3149 C3.30799,10.0339 3.92124,10.1914 4.20229,10.6669 Z" id="形状" fill="#09244B"></path>
            </g>
        </g>
    </g>
</svg>

<svg xmlns="http://www.w3.org/2000/svg" width="24" height="24"><g fill="none" fill-rule="nonzero"><path d="M24 0v24H0V0h24ZM12.594 23.258l-.012.002-.071.035-.02.004-.014-.004-.071-.036c-.01-.003-.019 0-.024.006l-.004.01-.017.428.005.02.01.013.104.074.015.004.012-.004.104-.074.012-.016.004-.017-.017-.427c-.002-.01-.009-.017-.016-.018Zm.264-.113-.014.002-.184.093-.01.01-.003.011.018.43.005.012.008.008.201.092c.012.004.023 0 .029-.008l.004-.014-.034-.614c-.003-.012-.01-.02-.02-.022Zm-.715.002a.023.023 0 0 0-.027.006l-.006.014-.034.614c0 .012.007.02.017.024l.015-.002.201-.093.01-.008.003-.011.018-.43-.003-.012-.01-.01-.184-.092Z"/><path fill="#09244B" d="M17.054 4.396a3 3 0 0 1 3.624 1.952l.05.169 1.035 3.864a2 2 0 0 1-1.27 2.405l-.144.044-2.35.63V15a1 1 0 0 0 .884.993L19 16h1a1 1 0 0 1 1.993-.117L22 16v2a1 1 0 0 1-1.993.117L20 18h-1a3 3 0 0 1-2.995-2.824L16 15v-1.004L9.487 15.74a2 2 0 0 1-2.142-.765l-.091-.139L4.239 9.81a1.5 1.5 0 0 1 .77-2.18l.128-.04 11.917-3.193Zm-12.852 6.27 1.625 2.75a1 1 0 0 1-1.721 1.018l-1.625-2.75a1 1 0 0 1 1.721-1.017Z"/></g></svg>
